X:508
T:Polska # 508
T: efter fadern
Q: 110
M:3/4
L:1/16
K: D
A2c2 d2e2 f2g2| agef d2d2 c2A2| cdcB G2G2 B2A2|1 FEDF A8:|2 FEDF A6||
|: d2| d3B G4 B3A| FDF2 A4 c3A| A2c2 d2e2 f2a2|1 efec d6:|2 efec d8||

